tools/download-figma-icons/icons/outlined-large/printer.svg

<svg width="65" height="64" viewBox="0 0 65 64" fill="none" xmlns="http://www.w3.org/2000/svg">
<path fill-rule="evenodd" clip-rule="evenodd" d="M51.804 52.866H61.005V31.9771C61.005 29.4401 58.942 27.3771 56.404 27.3771H50.3811C50.369 27.3776 50.3572 27.3793 50.3454 27.3811C50.3317 27.3831 50.318 27.3851 50.3041 27.3851H13.7002C13.6864 27.3851 13.6731 27.3832 13.6597 27.3812C13.6479 27.3794 13.6359 27.3776 13.6232 27.3771H7.60121C5.06422 27.3771 3.00023 29.4401 3.00023 31.9771V52.866H12.2002V46.2321C12.2002 45.4041 12.8722 44.7321 13.7002 44.7321H50.3041C51.132 44.7321 51.804 45.4041 51.804 46.2321V52.866ZM15.2002 61H48.8041V54.366V47.7321H15.2002V54.366V61ZM48.8041 24.3772H15.2002V3.00023H48.8041V24.3772ZM51.804 24.3772H56.404C60.596 24.3772 64.005 27.7861 64.005 31.9771V54.366C64.005 55.194 63.333 55.866 62.505 55.866H51.804V62.5C51.804 63.328 51.132 64 50.3041 64H13.7002C12.8722 64 12.2002 63.328 12.2002 62.5V55.866H1.50024C0.672242 55.866 0.00024414 55.194 0.00024414 54.366V31.9771C0.00024414 27.7861 3.40923 24.3772 7.60121 24.3772H12.2002V1.50024C12.2002 0.672242 12.8722 0.00024414 13.7002 0.00024414H50.3041C51.132 0.00024414 51.804 0.672242 51.804 1.50024V24.3772ZM9.63461 32.5272H13.7006C14.5286 32.5272 15.2006 33.1992 15.2006 34.0272C15.2006 34.8552 14.5286 35.5272 13.7006 35.5272H9.63461C8.80561 35.5272 8.13461 34.8552 8.13461 34.0272C8.13461 33.1992 8.80561 32.5272 9.63461 32.5272Z" fill="black"/>
</svg>

<svg xmlns="http://www.w3.org/2000/svg" width="65" height="64" fill="none" viewBox="0 0 65 64"><path fill="currentColor" fill-rule="evenodd" d="M51.804 52.866h9.201V31.977c0-2.537-2.063-4.6-4.601-4.6h-6.023l-.036.004-.04.004H13.7l-.04-.004-.037-.004H7.601a4.605 4.605 0 0 0-4.6 4.6v20.889h9.2v-6.634a1.5 1.5 0 0 1 1.5-1.5h36.603a1.5 1.5 0 0 1 1.5 1.5zM15.2 61h33.604V47.732H15.2zm33.604-36.623H15.2V3h33.604zm3 0h4.6c4.192 0 7.601 3.41 7.601 7.6v22.389a1.5 1.5 0 0 1-1.5 1.5H51.804V62.5a1.5 1.5 0 0 1-1.5 1.5H13.7a1.5 1.5 0 0 1-1.5-1.5v-6.634H1.5a1.5 1.5 0 0 1-1.5-1.5V31.977c0-4.19 3.41-7.6 7.601-7.6h4.6V1.5A1.5 1.5 0 0 1 13.7 0h36.603a1.5 1.5 0 0 1 1.5 1.5zm-42.17 8.15h4.067a1.5 1.5 0 0 1 0 3H9.635a1.5 1.5 0 1 1 0-3" clip-rule="evenodd"/></svg>
